X:82
T:Brunswick. WM.081
M:3/8
L:1/8
Q:3/8=50
S:Wm.Mittell's MS, New Romney,Kent,1799
R:.Waltz
O:England
A:Kent
N:Appears later in the book in Dmaj.
Z:vmp.Chris Partington
W:Lots of P's & F's under the staff,definitely copied from print
K:F
"^P"F/G/|AAB|c2f/d/|cc d/B/|AA F/G/|AAB|c2f|gg/f/g/a/|f2:|!
|:~c|"^F"bb"^P" ~c|"^F"aa"^P"f|ee/g/f/a/|gg~c|\
"^F"bb"P"c|"^F"aaf|"^P"ge/c/d/e/|ff:|!
|:"^PP"F/A/|ccd|cc A/c/|BB G/B/|AF F/A/|ccd|ccf|f/e/d/c/d/e/|f2:|

